public/assets/icons/ic_profile6.svg

<svg width="45" height="45" viewBox="0 0 45 45" fill="none" xmlns="http://www.w3.org/2000/svg">
<g clip-path="url(#clip0_277_3770)">
<rect width="45" height="45" rx="22.5" fill="#FF82A6"/>
<path d="M0.460957 51.8434C2.59155 51.8434 4.3184 50.1163 4.3184 47.986C4.3184 45.8554 2.59155 44.1285 0.460957 44.1285C-1.66932 44.1285 -3.39648 45.8554 -3.39648 47.986C-3.39648 50.1163 -1.66932 51.8434 0.460957 51.8434Z" fill="#FFD736"/>
<path d="M18.2054 40.014C14.0587 41.4927 13.2872 41.3963 9.84764 55.4438C4.9294 54.0616 2.32563 54.4151 1.90774 58.6905C1.48985 62.9658 6.76169 63.0622 11.3906 63.1265C16.0196 63.1908 17.5625 60.2335 20.7449 51.5864C23.9273 42.9393 18.2054 40.014 18.2054 40.014Z" fill="#459FF7"/>
<path d="M9.33321 50.2684C11.4635 50.2684 13.1907 48.5412 13.1907 46.411C13.1907 44.2804 11.4635 42.5535 9.33321 42.5535C7.20262 42.5535 5.47577 44.2804 5.47577 46.411C5.47577 48.5412 7.20262 50.2684 9.33321 50.2684Z" fill="#FFD736"/>
<path d="M4.86464 47.954C6.99524 47.954 8.72208 46.2268 8.72208 44.0965C8.72208 41.9659 6.99524 40.2391 4.86464 40.2391C2.73437 40.2391 1.0072 41.9659 1.0072 44.0965C1.0072 46.2268 2.73437 47.954 4.86464 47.954Z" fill="#FFD736"/>
<path d="M14.5727 46.3144C14.9263 47.761 11.0046 49.979 5.82916 51.2327C0.65376 52.4863 -3.84658 52.3256 -4.20018 50.8469C-4.55378 49.3682 -0.728486 46.7966 4.44691 45.5429C9.62231 44.2893 14.2191 44.8357 14.5727 46.3144Z" fill="white"/>
<path d="M12.4835 59.8155L10.1047 60.3941L8.27246 44.9C9.38565 44.8123 10.5043 44.8232 11.6156 44.9322L12.4835 59.8155Z" fill="#A6ADFF"/>
<path d="M32.5421 16.5477C33.0214 16.5477 33.4101 16.1592 33.4101 15.6798C33.4101 15.2005 33.0214 14.8119 32.5421 14.8119C32.0628 14.8119 31.6742 15.2005 31.6742 15.6798C31.6742 16.1592 32.0628 16.5477 32.5421 16.5477Z" fill="#FFD736"/>
<path d="M21.5486 17.0299C22.5332 15.8098 23.8538 14.9044 25.3466 14.4253C26.8398 13.9462 28.4403 13.9144 29.9511 14.3337C31.4619 14.7531 32.8172 15.6052 33.85 16.7853C34.8825 17.9653 35.5473 19.4216 35.7623 20.9749C35.9774 22.5282 35.7334 24.1103 35.0606 25.5263C34.3875 26.9427 33.3151 28.1311 31.975 28.9453C30.6348 29.7596 29.0857 30.164 27.519 30.1087C25.9519 30.0534 24.4353 29.541 23.1559 28.6345C22.2639 27.9967 21.5113 27.1841 20.944 26.2461C20.3769 25.3078 20.0066 24.264 19.8562 23.1778C19.7057 22.0919 19.7784 20.9868 20.0693 19.9295C20.3602 18.8726 20.8636 17.886 21.5486 17.0299Z" fill="#1D2CC2"/>
<path d="M17.4334 19.0873C13.576 14.2333 13.0938 11.3724 17.0798 10.4402C19.6074 9.86432 22.2305 9.85336 24.7626 10.408C25.7658 10.6461 26.709 11.0888 27.5332 11.7083C28.3574 12.3278 29.0447 13.1108 29.5522 14.0083C32.606 19.2481 32.9596 21.0161 32.9596 21.0161L17.4334 19.0873Z" fill="#FF78B9"/>
<path d="M20.5522 16.3869C18.3341 16.3869 18.3984 17.1584 18.4949 18.0263C18.5913 18.8943 20.5522 16.3869 20.5522 16.3869Z" fill="black"/>
<path d="M17.4334 19.0873L32.9596 21.0161C32.9596 21.0161 32.606 19.2159 29.5522 14.0083C29.0479 13.1084 28.3616 12.3235 27.5367 11.7036C26.7122 11.0837 25.7674 10.6425 24.7626 10.408C22.2305 9.85336 19.6074 9.86432 17.0798 10.4402C13.0938 11.3724 13.576 14.2333 17.4334 19.0873ZM17.3692 11.2117C19.6036 10.732 21.9132 10.7211 24.1518 11.1795C25.9712 11.5822 27.5624 12.6775 28.5879 14.2333C31.6417 18.8945 32.1239 20.5339 32.1239 20.5339L17.9799 18.7658C14.6689 14.0405 13.801 12.0153 17.3692 11.2117Z" fill="#EB459F"/>
<path d="M36.528 33.167C35.2744 30.4989 35.2101 27.9916 35.2422 25.7414C35.2814 24.3951 35.0484 23.0547 34.5569 21.8007C34.0651 20.5467 33.3251 19.4052 32.3813 18.4443C29.9704 16.0977 27.3023 15.7119 24.8271 15.5834C20.4554 15.2941 11.4868 19.0552 14.5406 34.0349C16.4372 43.2927 19.2017 54.0936 19.2017 54.0936C19.2017 54.0936 9.97598 69.459 28.2345 69.459C41.9284 69.459 45.3359 69.3305 47.0717 64.5408C48.2726 61.1305 48.2842 57.4145 47.1038 53.9971C42.6678 40.9783 39.5497 39.5639 36.528 33.167Z" fill="#459FF7"/>
<path d="M16.8871 44.6107C17.6907 47.986 19.2015 54.0936 19.2015 54.0936C17.1442 56.7938 16.3084 59.3976 16.9192 62.58" stroke="black" stroke-linecap="round" stroke-linejoin="round"/>
<path d="M24.8273 15.5835C27.0453 15.7121 29.4562 16.0335 31.6421 17.8337C20.9056 20.116 20.8413 22.6555 16.6302 19.4088C19.0411 16.3871 22.5771 15.4228 24.8273 15.5835Z" fill="#2A88E6"/>
<path d="M25.3739 18.8302C25.2546 18.4343 25.2003 18.0217 25.2132 17.6086" stroke="black" stroke-linecap="round" stroke-linejoin="round"/>
<path d="M25.0202 18.9267C24.79 18.5929 24.6161 18.2237 24.5059 17.8336" stroke="black" stroke-linecap="round" stroke-linejoin="round"/>
<path d="M24.9881 18.9266C24.5994 18.8279 24.2301 18.6648 23.8951 18.4443" stroke="black" stroke-linecap="round" stroke-linejoin="round"/>
<path d="M19.4269 19.3444C19.3298 19.0217 19.297 18.6831 19.3304 18.3478" stroke="black" stroke-linecap="round" stroke-linejoin="round"/>
<path d="M19.0731 19.4088C18.886 19.1375 18.7548 18.8314 18.6873 18.5086" stroke="black" stroke-linecap="round" stroke-linejoin="round"/>
<path d="M19.0411 19.4088C18.7258 19.3156 18.431 19.1629 18.1732 18.9588" stroke="black" stroke-linecap="round" stroke-linejoin="round"/>
<path d="M26.1944 21.5996C26.6042 20.1106 26.2291 18.7084 25.3564 18.4679C24.4833 18.2275 23.4434 19.2398 23.0332 20.7287C22.623 22.218 22.9982 23.6199 23.8709 23.8603C24.744 24.1008 25.7842 23.0885 26.1944 21.5996Z" fill="white"/>
<path d="M24.9058 21.035C25.0897 20.3676 24.9196 19.7385 24.5259 19.6299C24.1324 19.5216 23.664 19.9748 23.4802 20.6425C23.2963 21.3098 23.4664 21.9389 23.8601 22.0472C24.2539 22.1559 24.7219 21.7026 24.9058 21.035Z" fill="black"/>
<path d="M19.7072 21.7515C20.2627 20.3483 20.1779 18.9989 19.5176 18.7375C18.8573 18.4761 17.8717 19.4017 17.3163 20.8048C16.7608 22.2076 16.8457 23.5571 17.5059 23.8184C18.1662 24.0798 19.1518 23.1543 19.7072 21.7515Z" fill="white"/>
<path d="M20.9376 27.3165C20.7891 27.4541 20.5937 27.5309 20.3912 27.5309C20.1883 27.5309 19.9932 27.4541 19.8447 27.3165C17.8838 25.5485 16.8873 25.5485 16.8873 27.8309C16.8873 30.1132 19.0732 36.2851 21.4841 36.2851C23.895 36.2851 25.4701 32.2026 26.2738 29.0845C27.0774 25.9664 25.5666 24.8092 24.0236 25.3235C22.9628 25.6771 21.677 26.7058 20.9376 27.3165Z" fill="black"/>
<path d="M22.8664 31.7205C22.1271 31.174 21.002 31.3347 20.3269 31.8812C19.6519 32.4277 18.784 33.4885 19.684 34.485C20.5841 35.4815 22.4485 34.935 23.3807 34.0349C24.313 33.1349 25.0844 32.4598 24.9237 31.8169C24.763 31.174 24.1522 31.0454 22.8664 31.7205Z" fill="#FF78B9"/>
<path d="M19.167 21.1965C19.3968 20.6185 19.3557 20.0595 19.075 19.948C18.7941 19.8361 18.3804 20.2141 18.1505 20.7921C17.9204 21.3697 17.9615 21.9288 18.2425 22.0406C18.5231 22.1522 18.9368 21.7741 19.167 21.1965Z" fill="black"/>
<path d="M19.202 16.3869C19.202 14.6189 22.1272 15.069 23.638 15.1654C25.8239 15.294 29.1349 15.4547 31.6101 17.7692V17.8335C29.8421 16.1619 23.188 16.3869 19.202 16.3869Z" fill="#FF78B9"/>
<path d="M31.6421 17.8336C31.2785 17.5373 30.8648 17.3087 30.4205 17.1585L30.1312 16.6763C30.1312 16.2263 30.3562 16.1299 30.5491 16.2906C30.742 16.4513 31.2242 17.1264 31.6099 17.7693L31.6421 17.8336Z" fill="#EB459F"/>
<path d="M41.1568 45.7679L32.349 32.9097C35.5635 27.5415 38.8745 25.5806 43.407 30.6274C47.9395 35.6742 50.9933 42.1997 52.6649 45.2535C54.3364 48.3074 54.0793 50.3004 51.6041 52.5505H41.2533C40.8129 52.5467 40.3831 52.4139 40.0173 52.168C39.6515 51.9224 39.366 51.5746 39.196 51.1683C38.2637 48.9503 39.2924 46.8608 41.1568 45.7679Z" fill="#459FF7"/>
<path d="M41.2535 52.5507C40.8128 52.5468 40.383 52.414 40.0176 52.1681C39.6517 51.9225 39.3663 51.5747 39.1962 51.1684C38.264 48.9504 39.2927 46.8609 41.1571 45.768L36.3996 38.8246" stroke="black" stroke-linecap="round" stroke-linejoin="round"/>
<path d="M22.9305 31.3348C21.9452 31.8006 21.0937 32.5084 20.4553 33.3921" stroke="black" stroke-linecap="round" stroke-linejoin="round"/>
<path d="M25.7593 39.4675C24.9887 39.9966 24.0511 40.2252 23.1233 40.1104C21.88 39.9764 20.7327 39.3797 19.9088 38.4388" stroke="#2A88E6" stroke-width="2" stroke-linecap="round" stroke-linejoin="round"/>
<path d="M30.2279 36.4137H30.3243C30.3896 36.4101 30.4526 36.3866 30.504 36.3465C30.5558 36.306 30.594 36.251 30.6137 36.1886C31.6635 33.4932 33.2869 31.0582 35.3712 29.0524C35.3364 28.7965 35.3149 28.539 35.3069 28.2809C32.9686 30.4031 31.1627 33.0461 30.035 35.9958C30.0196 36.0356 30.0125 36.0784 30.0138 36.1215C30.0154 36.1642 30.0254 36.2063 30.0434 36.2452C30.0614 36.2841 30.0868 36.3191 30.1186 36.3481C30.1501 36.377 30.1874 36.3992 30.2279 36.4137Z" fill="black"/>
<path d="M41.157 45.7679C42.8929 44.7071 45.6895 44.1607 47.6826 45.2215" stroke="black" stroke-width="2" stroke-linecap="round" stroke-linejoin="round"/>
</g>
<defs>
<clipPath id="clip0_277_3770">
<rect width="45" height="45" rx="22.5" fill="white"/>
</clipPath>
</defs>
</svg>

<svg xmlns="http://www.w3.org/2000/svg" width="45" height="45" fill="none"><g clip-path="url(#a)"><rect width="45" height="45" fill="#FF82A6" rx="22.5"/><path fill="#FFD736" d="M.46 51.84a3.86 3.86 0 1 0 0-7.71 3.86 3.86 0 0 0 0 7.71Z"/><path fill="#459FF7" d="M18.2 40.01c-4.14 1.48-4.91 1.39-8.35 15.43-4.92-1.38-7.52-1.02-7.94 3.25-.42 4.28 4.85 4.37 9.48 4.44 4.63.06 6.17-2.9 9.35-11.54C23.93 42.94 18.21 40 18.21 40Z"/><path fill="#FFD736" d="M9.33 50.27a3.86 3.86 0 1 0 0-7.72 3.86 3.86 0 0 0 0 7.72Z"/><path fill="#FFD736" d="M4.86 47.95a3.86 3.86 0 1 0 0-7.71 3.86 3.86 0 0 0 0 7.71Z"/><path fill="#fff" d="M14.57 46.31c.36 1.45-3.57 3.67-8.74 4.92-5.18 1.26-9.68 1.1-10.03-.38-.35-1.48 3.47-4.05 8.65-5.3 5.17-1.26 9.77-.71 10.12.76Z"/><path fill="#A6ADFF" d="m12.48 59.82-2.38.57L8.27 44.9c1.12-.09 2.23-.08 3.35.03l.86 14.89Z"/><path fill="#FFD736" d="M32.54 16.55a.87.87 0 1 0 0-1.74.87.87 0 0 0 0 1.74Z"/><path fill="#1D2CC2" d="M21.55 17.03a8.04 8.04 0 1 1 12.5 10.1 8.04 8.04 0 0 1-12.5-10.1Z"/><path fill="#FF78B9" d="M17.43 19.09c-3.85-4.86-4.34-7.72-.35-8.65 2.53-.58 5.15-.59 7.68-.03a7.49 7.49 0 0 1 4.8 3.6c3.05 5.24 3.4 7 3.4 7L17.43 19.1Z"/><path fill="#000" d="M20.55 16.39c-2.22 0-2.15.77-2.06 1.64.1.86 2.06-1.64 2.06-1.64Z"/><path fill="#EB459F" d="m17.43 19.09 15.53 1.93s-.35-1.8-3.4-7.01a7.42 7.42 0 0 0-4.8-3.6 17.62 17.62 0 0 0-7.68.03c-3.99.93-3.5 3.8.35 8.65Zm-.06-7.88c2.23-.48 4.54-.49 6.78-.03 1.82.4 3.41 1.5 4.44 3.05 3.05 4.66 3.53 6.3 3.53 6.3l-14.14-1.76c-3.31-4.73-4.18-6.75-.61-7.56Z"/><path fill="#459FF7" d="M36.53 33.17c-1.26-2.67-1.32-5.18-1.29-7.43a10 10 0 0 0-2.86-7.3c-2.41-2.34-5.08-2.73-7.55-2.86-4.37-.29-13.34 3.48-10.29 18.45 1.9 9.26 4.66 20.06 4.66 20.06s-9.22 15.37 9.03 15.37c13.7 0 17.1-.13 18.84-4.92A16 16 0 0 0 47.1 54c-4.43-13.02-7.55-14.44-10.57-20.83Z"/><path stroke="#000" stroke-linecap="round" stroke-linejoin="round" d="M16.89 44.61c.8 3.38 2.31 9.48 2.31 9.48-2.06 2.7-2.9 5.3-2.28 8.49"/><path fill="#2A88E6" d="M24.83 15.58c2.22.13 4.63.45 6.81 2.25-10.73 2.29-10.8 4.83-15.01 1.58a10.08 10.08 0 0 1 8.2-3.83Z"/><path stroke="#000" stroke-linecap="round" stroke-linejoin="round" d="M25.37 18.83c-.12-.4-.17-.8-.16-1.22M25.02 18.93a3.7 3.7 0 0 1-.51-1.1M24.99 18.93a3.6 3.6 0 0 1-1.1-.49M19.43 19.34c-.1-.32-.13-.66-.1-1M19.07 19.4a2.48 2.48 0 0 1-.38-.9M19.04 19.4c-.31-.08-.6-.24-.87-.44"/><path fill="#fff" d="M26.2 21.6c.4-1.49.03-2.9-.84-3.13-.88-.24-1.92.77-2.33 2.26-.4 1.49-.03 2.89.84 3.13.87.24 1.91-.77 2.32-2.26Z"/><path fill="#000" d="M24.9 21.04c.19-.67.02-1.3-.37-1.41-.4-.1-.87.34-1.05 1.01-.18.67-.01 1.3.38 1.4.4.12.86-.34 1.05-1Z"/><path fill="#fff" d="M19.7 21.75c.56-1.4.48-2.75-.18-3.01-.66-.26-1.65.66-2.2 2.06-.56 1.4-.47 2.76.19 3.02.66.26 1.64-.67 2.2-2.07Z"/><path fill="#000" d="M20.94 27.32a.8.8 0 0 1-1.1 0c-1.96-1.77-2.95-1.77-2.95.51 0 2.28 2.18 8.46 4.6 8.46 2.4 0 3.98-4.09 4.78-7.2.8-3.12-.7-4.28-2.25-3.77a11.59 11.59 0 0 0-3.08 2Z"/><path fill="#FF78B9" d="M22.87 31.72c-.74-.55-1.87-.39-2.54.16-.68.55-1.55 1.6-.65 2.6s2.77.46 3.7-.45c.93-.9 1.7-1.57 1.54-2.21-.16-.65-.77-.77-2.05-.1Z"/><path fill="#000" d="M19.17 21.2c.23-.58.19-1.14-.1-1.25-.28-.11-.69.26-.92.84-.23.58-.19 1.14.1 1.25.27.11.69-.27.92-.84Z"/><path fill="#FF78B9" d="M19.2 16.39c0-1.77 2.93-1.32 4.44-1.22 2.18.12 5.5.28 7.97 2.6v.06c-1.77-1.67-8.42-1.44-12.4-1.44Z"/><path fill="#EB459F" d="M31.64 17.83c-.36-.3-.78-.52-1.22-.67l-.29-.48c0-.45.23-.55.42-.39.2.16.67.84 1.06 1.48l.03.06Z"/><path fill="#459FF7" d="M41.16 45.77 32.35 32.9c3.21-5.37 6.52-7.33 11.06-2.28 4.53 5.04 7.58 11.57 9.25 14.62 1.68 3.06 1.42 5.05-1.06 7.3H41.25a2.25 2.25 0 0 1-2.05-1.38c-.94-2.22.1-4.3 1.96-5.4Z"/><path stroke="#000" stroke-linecap="round" stroke-linejoin="round" d="M41.25 52.55a2.25 2.25 0 0 1-2.05-1.38c-.94-2.22.1-4.3 1.96-5.4l-4.76-6.95M22.93 31.33a6.46 6.46 0 0 0-2.47 2.06"/><path stroke="#2A88E6" stroke-linecap="round" stroke-linejoin="round" stroke-width="2" d="M25.76 39.47c-.77.53-1.7.76-2.64.64a4.98 4.98 0 0 1-3.21-1.67"/><path fill="#000" d="M30.23 36.41h.1a.32.32 0 0 0 .28-.22 19.95 19.95 0 0 1 4.76-7.14 7.43 7.43 0 0 1-.06-.77 20.12 20.12 0 0 0-5.3 7.84.32.32 0 0 0 .22.3Z"/><path stroke="#000" stroke-linecap="round" stroke-linejoin="round" stroke-width="2" d="M41.16 45.77c1.73-1.06 4.53-1.6 6.52-.55"/></g><defs><clipPath id="a"><rect width="45" height="45" fill="#fff" rx="22.5"/></clipPath></defs></svg>
